X:1
T:Polka du Pre Frdric (Corrze)
M:2/4
L:1/8
K:C
EE (AA/2)G/2|AB c/2B/2d/2c/2|BA EA/2A/2|G/2A/2B/2G/2 BA
EE (AA/2)G/2|AB c/2B/2d/2c/2|BA EA/2A/2|G/2A/2B/2G/2 A2:|
|:ee (aa/2)e/2|dB (cc/2)B/2|A/2G/2A/2B/2 c/2B/2d/2c/2|BA|
ee (aa/2)e/2|dB (cc/2)B/2|A/2G/2A/2B/2 c/2d/2e/2d/2|cB A2:|
